src/cards/spades_9.svg

<svg version="1.1" id="Layer_1" xmlns="http://www.w3.org/2000/svg" xmlns:xlink="http://www.w3.org/1999/xlink" x="0px" y="0px"
	 width="100%" viewBox="0 0 336 496" enable-background="new 0 0 336 496" xml:space="preserve">
<path fill="currentColor" opacity="1.000000" stroke="none" 
	d="
M124.369316,211.639420 
	C117.320076,215.669266 110.676193,214.943924 103.386047,210.917526 
	C103.666092,216.064072 105.818123,219.783951 108.245834,223.397354 
	C109.159401,224.757111 110.701401,226.006653 109.930359,227.817657 
	C108.992912,230.019501 106.790596,229.241669 105.072815,229.291473 
	C101.412292,229.397629 97.744331,229.396088 94.083824,229.288605 
	C92.362587,229.238068 90.141075,229.998016 89.232185,227.792480 
	C88.483627,225.975998 90.042686,224.730835 91.042076,223.433533 
	C93.512474,220.226654 95.311684,216.748505 95.622566,212.673019 
	C94.133102,211.500488 92.991165,212.482498 91.811485,212.934601 
	C84.840065,215.606293 78.233276,214.826859 72.656494,209.903046 
	C66.730309,204.670731 65.469009,197.768646 67.347122,190.270432 
	C68.726372,184.763916 71.760727,180.219269 76.172691,176.689117 
	C81.499374,172.427094 86.926735,168.289536 92.353523,164.154541 
	C95.164513,162.012695 96.963356,158.961182 99.666107,155.979019 
	C105.487572,164.741058 114.525352,169.401901 122.127274,175.763184 
	C127.467087,180.231537 131.499359,185.542725 132.498489,192.819595 
	C133.577423,200.677643 131.217987,206.872269 124.369316,211.639420 
z"/>
<path fill="currentColor" opacity="1.000000" stroke="none" 
	d="
M139.855698,239.088425 
	C142.755661,234.230347 146.803528,231.026291 150.898438,227.865005 
	C157.449524,222.807541 164.880676,218.750809 169.512253,210.543762 
	C175.276184,219.786880 184.256821,224.272018 191.762436,230.491531 
	C197.706635,235.417145 201.921234,241.325241 202.759308,249.360077 
	C204.095291,262.168579 192.261444,272.262451 179.836166,268.660278 
	C177.791672,268.067566 175.829208,267.191986 173.436615,266.301117 
	C173.686432,271.203705 175.864243,275.009735 178.431732,278.659668 
	C179.385239,280.015167 180.719482,281.327454 179.789200,283.132080 
	C178.932739,284.793549 177.169342,284.269348 175.748062,284.290070 
	C171.419830,284.353271 167.086060,284.419128 162.761902,284.269104 
	C158.681107,284.127533 157.947144,282.656006 160.358032,279.359283 
	C163.005814,275.738678 165.465363,272.121521 165.540298,266.905945 
	C162.445938,267.770782 159.830276,268.866333 157.121155,269.197632 
	C143.335754,270.883514 133.386749,258.586578 137.417969,244.940414 
	C137.978561,243.042725 138.915512,241.256210 139.855698,239.088425 
z"/>
<path fill="currentColor" opacity="1.000000" stroke="none" 
	d="
M241.724304,346.522400 
	C240.553452,348.158813 239.380127,349.334961 238.124390,347.273163 
	C233.976517,340.462769 227.002045,336.911957 221.028748,332.210754 
	C217.095123,329.114807 213.228668,325.955170 210.456863,321.714447 
	C203.048691,310.380371 206.209106,296.951111 217.406616,292.073395 
	C221.541901,290.272034 225.748642,290.274414 230.078644,291.408356 
	C231.775482,291.852722 233.305786,293.202484 235.518433,292.546753 
	C235.612946,287.937866 233.169464,284.450134 230.589355,281.014099 
	C229.702896,279.833557 228.456741,278.684601 229.241684,277.028961 
	C230.053925,275.315735 231.792969,275.742432 233.220673,275.723907 
	C237.710815,275.665588 242.202393,275.685852 246.693146,275.716431 
	C250.557907,275.742798 251.032578,277.713989 249.063995,280.473602 
	C246.434265,284.160034 244.239914,287.974854 243.471741,292.381805 
	C244.729370,293.800293 245.773880,292.822876 246.744003,292.406342 
	C254.408447,289.115753 261.527924,290.056183 267.473694,295.864166 
	C273.284363,301.540192 274.020935,308.633026 271.605011,316.167572 
	C269.058289,324.110016 262.838074,328.879120 256.514496,333.551361 
	C251.312500,337.394958 245.683105,340.747894 241.724304,346.522400 
z"/>
<path fill="currentColor" opacity="1.000000" stroke="none" 
	d="
M115.339584,444.394104 
	C109.287399,448.561829 103.798294,452.829346 99.621056,459.335144 
	C94.320107,450.571899 86.029015,446.253174 78.894478,440.600555 
	C71.843040,435.013763 66.567749,428.481537 66.650993,418.841736 
	C66.763351,405.829895 78.502518,397.450134 90.789406,401.675690 
	C92.175964,402.152557 93.444244,403.148193 95.417526,402.722687 
	C95.838913,398.124756 93.194206,394.719482 90.813187,391.209351 
	C89.909386,389.876953 88.346710,388.616913 89.468422,386.788666 
	C90.403976,385.263824 92.149628,385.735718 93.592239,385.714661 
	C97.590714,385.656311 101.591896,385.635956 105.589272,385.724365 
	C107.155014,385.759003 109.150070,385.160889 109.951546,387.192505 
	C110.580559,388.786957 109.416367,390.012909 108.550049,391.241241 
	C106.078644,394.745514 103.876450,398.363800 103.602371,403.255402 
	C106.819084,402.338623 109.585350,401.128693 112.451752,400.804718 
	C126.471077,399.220032 136.129425,411.803894 131.798538,425.772858 
	C129.145844,434.328888 122.362488,439.229797 115.339584,444.394104 
z"/>
<path fill="currentColor" opacity="1.000000" stroke="none" 
	d="
M217.566406,439.466736 
	C211.117126,433.756073 206.490082,427.553650 206.625214,418.708923 
	C206.823517,405.729858 218.528214,397.460327 230.899292,401.709778 
	C232.268951,402.180267 233.530472,403.225830 235.462906,402.575470 
	C235.710464,398.024445 233.152054,394.576538 230.726593,391.076721 
	C229.889603,389.868988 228.585464,388.736603 229.322388,387.077087 
	C230.097076,385.332520 231.846664,385.733765 233.282150,385.720398 
	C238.737854,385.669464 244.194321,385.699860 250.223618,385.699860 
	C249.614426,392.545135 243.265701,396.357025 243.761917,403.137726 
	C246.602905,402.321106 249.323837,401.127411 252.145782,400.797241 
	C266.449829,399.123749 276.338898,411.877686 271.731659,425.918793 
	C269.965332,431.301971 266.538849,435.499084 262.235687,439.116699 
	C254.638626,445.503448 245.410034,449.987061 239.662659,459.390594 
	C234.100525,450.176605 225.176514,445.857971 217.566406,439.466736 
z"/>
<path fill="currentColor" opacity="1.000000" stroke="none" 
	d="
M90.682808,339.333496 
	C84.926689,334.769470 78.819740,331.218964 73.997162,326.058929 
	C69.407196,321.147766 66.501724,315.596100 66.627258,308.610840 
	C66.852943,296.052460 77.972298,287.864777 90.080956,291.419525 
	C91.761620,291.912872 93.291885,293.263550 95.532913,292.596863 
	C95.587822,288.014404 93.170959,284.500732 90.666428,281.016724 
	C89.807404,279.821777 88.525734,278.669403 89.278053,277.016235 
	C90.069641,275.276764 91.830490,275.738434 93.256126,275.715820 
	C97.421196,275.649872 101.588844,275.644379 105.753624,275.719086 
	C107.176254,275.744629 108.957161,275.245972 109.801338,276.889984 
	C110.722969,278.684845 109.401566,280.031982 108.422722,281.365540 
	C105.937653,284.751221 104.207428,288.450317 103.424980,292.374390 
	C104.394531,293.484802 105.236282,293.148102 105.936501,292.760651 
	C114.238640,288.167084 124.246811,291.347351 128.981842,297.413269 
	C134.101608,303.972046 134.119812,314.029999 128.926865,321.736633 
	C127.055443,324.513947 124.805763,326.940704 122.226425,329.104706 
	C114.621048,335.485413 105.431992,340.010559 99.735443,349.034180 
	C96.682068,345.467560 94.478798,341.875641 90.682808,339.333496 
z"/>
<path fill="currentColor" opacity="1.000000" stroke="none" 
	d="
M243.414764,102.205399 
	C243.999817,106.916656 246.317322,110.535118 248.758270,114.132172 
	C251.253159,117.808693 250.572693,119.163498 246.155273,119.291153 
	C241.830505,119.416138 237.498871,119.358284 233.171326,119.300377 
	C231.733063,119.281136 229.989441,119.623955 229.261673,117.846771 
	C228.580978,116.184517 229.836563,115.072754 230.704102,113.863800 
	C234.372040,108.752327 235.208420,106.666901 235.871521,100.995041 
	C230.988251,103.726913 225.957718,105.244453 220.495804,103.929611 
	C210.159073,101.441246 204.453293,91.393158 207.142731,80.706230 
	C208.954819,73.505600 213.739044,68.543633 219.289810,64.110481 
	C226.267624,58.537624 234.407928,54.305134 239.508926,45.692616 
	C245.476730,54.872341 254.572617,59.495445 262.171844,65.871460 
	C268.448792,71.137993 272.675964,77.538895 272.920166,85.896492 
	C273.295380,98.738808 260.491180,107.615257 248.309540,103.289307 
	C246.758865,102.738640 245.526245,100.693047 243.414764,102.205399 
z"/>
<path fill="currentColor" opacity="1.000000" stroke="none" 
	d="
M248.484375,165.513580 
	C253.272003,169.147552 257.894684,172.423721 262.284332,175.986984 
	C268.029022,180.650116 271.787109,186.474472 272.699005,194.078918 
	C274.224457,206.800232 262.428101,217.199570 250.081482,213.740723 
	C248.024887,213.164581 246.071899,212.218552 243.428757,211.194626 
	C243.394577,216.127853 245.895462,219.723068 248.214462,223.371750 
	C249.166931,224.870361 250.964005,226.227234 249.727524,228.219131 
	C248.688019,229.893723 246.719193,229.261108 245.125031,229.297348 
	C241.631210,229.376801 238.130554,229.416397 234.640152,229.280716 
	C232.767563,229.207916 230.328293,230.162613 229.274582,227.824402 
	C228.367935,225.812592 230.260834,224.507858 231.334793,223.091690 
	C233.993729,219.585541 235.395172,215.604279 236.310532,210.666672 
	C231.074448,213.711792 226.069855,215.228760 220.628555,213.966995 
	C210.171341,211.542099 204.341919,201.119003 207.277008,190.321243 
	C209.163666,183.380417 213.641342,178.388794 219.179306,174.154648 
	C226.287552,168.719879 234.122421,164.124802 239.345718,156.133499 
	C242.566483,159.319107 244.852859,162.846542 248.484375,165.513580 
z"/>
<path fill="currentColor" opacity="1.000000" stroke="none" 
	d="
M97.086487,119.339119 
	C95.939079,119.339745 95.262840,119.412796 94.607704,119.326202 
	C92.737755,119.079033 90.283806,120.165825 89.269447,117.782204 
	C88.409073,115.760414 90.337234,114.488846 91.386253,113.050713 
	C93.964241,109.516472 95.546715,105.607491 96.244804,100.649841 
	C91.051155,103.746246 86.024345,105.227707 80.565323,103.939850 
	C70.250328,101.506386 64.478561,91.365067 67.177177,80.700005 
	C68.903908,73.875908 73.254684,68.968826 78.546104,64.711639 
	C85.762764,58.905510 94.112175,54.412949 99.569321,45.823174 
	C105.513870,54.902348 114.670265,59.480698 122.238907,65.916862 
	C128.769272,71.470100 133.231934,78.155487 132.765259,87.005898 
	C132.056107,100.454689 119.249847,108.007141 106.821236,102.579514 
	C105.919586,102.185768 105.046677,101.726242 103.547813,101.000816 
	C103.326546,105.961487 105.776337,109.423630 107.921265,112.973114 
	C108.841614,114.496124 110.772652,115.786728 109.905624,117.788231 
	C108.873169,120.171631 106.435089,119.171501 104.564323,119.293243 
	C102.240829,119.444427 99.900398,119.335335 97.086487,119.339119 
z"/>
<path fill="currentColor" opacity="1.000000" stroke="none" 
	d="
M324.405090,420.035278 
	C320.296265,425.467896 314.001007,427.780731 309.716461,433.570770 
	C306.200287,429.105804 301.694275,426.618378 297.886963,423.252350 
	C292.956635,418.893372 291.496887,413.718903 293.727509,409.073700 
	C295.844696,404.664734 299.617828,403.196381 306.549622,404.137054 
	C307.454590,401.337982 304.007629,399.980316 304.347290,396.946930 
	C307.784424,395.299408 311.298615,395.618866 314.800385,396.953430 
	C315.402466,399.757904 312.171021,401.137146 313.002045,403.675354 
	C325.104370,403.852936 329.371368,409.746521 324.405090,420.035278 
z"/>
<path fill="currentColor" opacity="1.000000" stroke="none" 
	d="
M294.227570,473.365082 
	C293.292572,466.649353 294.426117,460.649902 297.390717,455.110809 
	C301.739532,446.985382 311.963013,443.650421 320.188873,447.436462 
	C321.887939,448.218475 323.750244,449.046387 322.943787,451.424438 
	C322.207703,453.595001 320.483612,453.091400 318.779846,452.655823 
	C310.781464,450.610992 305.199585,455.073578 304.907043,461.934845 
	C306.790619,462.631958 308.385101,461.402802 310.098785,461.075165 
	C316.428986,459.864838 322.845306,463.087341 324.871216,468.546326 
	C327.511627,475.661072 324.661224,483.962585 318.367310,487.111206 
	C308.869812,491.862427 295.846069,488.381470 294.227570,473.365082 
M304.411713,476.981934 
	C306.631500,482.989746 309.561523,485.001587 313.093445,482.943024 
	C316.320068,481.062378 317.643250,475.353180 315.891296,471.282135 
	C314.038483,466.976624 310.492859,466.618958 306.729706,467.607239 
	C301.381409,469.011780 303.950043,472.992554 304.411713,476.981934 
z"/>
<path fill="currentColor" opacity="1.000000" stroke="none" 
	d="
M26.183819,75.177109 
	C27.288250,73.919090 28.137634,72.906151 29.356775,71.452263 
	C33.422585,76.052773 38.389374,78.791039 42.436844,82.645752 
	C46.335728,86.358948 47.605667,91.749794 45.626598,95.860947 
	C43.005543,101.305695 38.194893,101.842979 32.976288,100.864288 
	C31.900349,103.755692 35.096153,105.085197 34.808201,107.959290 
	C31.391928,109.514275 27.930462,109.529236 24.382605,107.846039 
	C24.477283,104.920197 27.104572,103.303230 27.002092,100.239052 
	C23.645372,101.548592 20.295906,101.858765 17.137638,99.820732 
	C11.701517,96.312813 11.140048,88.667480 16.322212,83.331184 
	C19.193993,80.373985 22.705576,78.038109 26.183819,75.177109 
z"/>
<path fill="currentColor" opacity="1.000000" stroke="none" 
	d="
M40.372562,52.243481 
	C34.506027,58.675705 27.668137,60.444237 19.795666,57.859020 
	C18.029434,57.279011 15.581024,56.670368 16.144230,53.940510 
	C16.771269,50.901260 18.847435,52.097256 20.834543,52.495819 
	C28.460367,54.025352 33.158722,50.774048 34.335800,43.319275 
	C32.859123,42.371128 31.451874,43.325012 30.085327,43.614594 
	C22.920809,45.132751 17.313147,42.687023 14.695434,36.774940 
	C12.123892,30.967138 14.120303,22.797756 19.009951,19.119791 
	C28.120150,12.267152 41.204273,16.582537 44.227020,27.581697 
	C46.587906,36.172489 45.525288,44.377113 40.372562,52.243481 
M23.481098,33.942215 
	C25.407597,38.223446 29.006828,38.320724 32.751179,37.361191 
	C36.249863,36.464615 35.819035,33.429581 35.577248,30.804464 
	C35.028706,24.848879 31.776514,20.918736 27.988295,21.400949 
	C23.828659,21.930447 21.761082,27.123243 23.481098,33.942215 
z"/>
</svg>

<svg xmlns="http://www.w3.org/2000/svg" viewBox="0 0 336 496" xml:space="preserve"><path fill="currentColor" d="M124.37 211.64c-7.05 4.03-13.694 3.304-20.984-.722.28 5.146 2.432 8.866 4.86 12.48.913 1.36 2.455 2.609 1.684 4.42-.937 2.202-3.14 1.424-4.857 1.473-3.66.107-7.329.105-10.99-.002-1.72-.05-3.942.709-4.85-1.497-.75-1.816.81-3.061 1.81-4.358 2.47-3.207 4.269-6.685 4.58-10.761-1.49-1.173-2.632-.19-3.812.262-6.97 2.671-13.578 1.892-19.155-3.032-5.926-5.232-7.187-12.134-5.309-19.633 1.38-5.506 4.414-10.05 8.826-13.58 5.326-4.263 10.754-8.4 16.18-12.535 2.812-2.142 4.61-5.194 7.313-8.176 5.822 8.762 14.86 13.423 22.461 19.784 5.34 4.469 9.372 9.78 10.371 17.057 1.08 7.858-1.28 14.052-8.129 18.82zM139.856 239.088c2.9-4.858 6.948-8.062 11.042-11.223 6.552-5.057 13.983-9.114 18.614-17.321 5.764 9.243 14.745 13.728 22.25 19.948 5.945 4.925 10.16 10.833 10.997 18.868 1.336 12.809-10.498 22.902-22.923 19.3-2.044-.592-4.007-1.468-6.4-2.359.25 4.903 2.428 8.709 4.996 12.359.953 1.355 2.287 2.667 1.357 4.472-.856 1.662-2.62 1.137-4.04 1.158-4.33.063-8.663.13-12.987-.02-4.08-.142-4.815-1.614-2.404-4.91 2.648-3.621 5.107-7.238 5.182-12.454-3.094.865-5.71 1.96-8.419 2.292-13.785 1.686-23.734-10.611-19.703-24.258.56-1.897 1.498-3.684 2.438-5.852zM241.724 346.522c-1.17 1.637-2.344 2.813-3.6.751-4.147-6.81-11.122-10.361-17.095-15.062-3.934-3.096-7.8-6.256-10.572-10.497-7.408-11.334-4.248-24.763 6.95-29.64 4.135-1.802 8.342-1.8 12.672-.666 1.696.445 3.227 1.794 5.44 1.139.094-4.61-2.35-8.097-4.93-11.533-.886-1.18-2.132-2.33-1.347-3.985.812-1.713 2.551-1.287 3.979-1.305 4.49-.058 8.981-.038 13.472-.008 3.865.027 4.34 1.998 2.371 4.758-2.63 3.686-4.824 7.5-5.592 11.908 1.257 1.418 2.302.44 3.272.024 7.664-3.29 14.784-2.35 20.73 3.458 5.81 5.676 6.547 12.769 4.131 20.304-2.547 7.942-8.767 12.711-15.09 17.383-5.202 3.844-10.832 7.197-14.79 12.971zM115.34 444.394c-6.053 4.168-11.542 8.435-15.719 14.941-5.3-8.763-13.592-13.082-20.727-18.734-7.051-5.587-12.326-12.12-12.243-21.76.112-13.011 11.852-21.39 24.138-17.165 1.387.477 2.655 1.472 4.629 1.047.42-4.598-2.224-8.004-4.605-11.514-.904-1.332-2.466-2.592-1.345-4.42.936-1.525 2.682-1.053 4.124-1.074 3.999-.059 8-.079 11.997.01 1.566.034 3.561-.564 4.363 1.468.629 1.594-.536 2.82-1.402 4.048-2.471 3.505-4.674 7.123-4.948 12.014 3.217-.916 5.983-2.126 8.85-2.45 14.02-1.585 23.677 10.999 19.347 24.968-2.653 8.556-9.437 13.457-16.46 18.621zM217.566 439.467c-6.449-5.71-11.076-11.913-10.94-20.758.198-12.98 11.902-21.249 24.273-17 1.37.471 2.631 1.517 4.564.866.247-4.55-2.31-7.998-4.736-11.498-.837-1.208-2.142-2.34-1.405-4 .775-1.744 2.525-1.343 3.96-1.357 5.456-.05 10.912-.02 16.942-.02-.61 6.845-6.958 10.657-6.462 17.438 2.84-.817 5.562-2.01 8.384-2.34 14.304-1.674 24.193 11.08 19.586 25.12-1.767 5.384-5.193 9.581-9.496 13.199-7.597 6.386-16.826 10.87-22.573 20.274-5.562-9.214-14.486-13.533-22.097-19.924zM90.683 339.333c-5.756-4.564-11.863-8.114-16.686-13.274-4.59-4.911-7.495-10.463-7.37-17.448.226-12.559 11.345-20.746 23.454-17.191 1.68.493 3.21 1.844 5.452 1.177.055-4.583-2.362-8.096-4.867-11.58-.859-1.195-2.14-2.348-1.388-4 .792-1.74 2.552-1.279 3.978-1.301a370.17 370.17 0 0 1 12.498.003c1.422.026 3.203-.473 4.047 1.171.922 1.795-.4 3.142-1.378 4.476-2.485 3.385-4.216 7.084-4.998 11.008.97 1.11 1.811.774 2.512.387 8.302-4.594 18.31-1.414 23.045 4.652 5.12 6.559 5.138 16.617-.055 24.324-1.872 2.777-4.121 5.204-6.7 7.368-7.606 6.38-16.795 10.906-22.492 19.93-3.053-3.567-5.256-7.16-9.052-9.702zM243.415 102.205c.585 4.712 2.902 8.33 5.343 11.927 2.495 3.677 1.815 5.031-2.603 5.16-4.324.124-8.656.066-12.984.008-1.438-.019-3.182.324-3.91-1.453-.68-1.662.576-2.774 1.443-3.983 3.668-5.112 4.504-7.197 5.168-12.869-4.884 2.732-9.914 4.25-15.376 2.935-10.337-2.489-16.043-12.537-13.353-23.224 1.812-7.2 6.596-12.162 12.147-16.596 6.978-5.572 15.118-9.805 20.219-18.417 5.968 9.18 15.064 13.802 22.663 20.178 6.277 5.267 10.504 11.668 10.748 20.025.375 12.843-12.429 21.72-24.61 17.393-1.551-.55-2.784-2.596-4.895-1.084zM248.484 165.514c4.788 3.634 9.41 6.91 13.8 10.473 5.745 4.663 9.503 10.487 10.415 18.092 1.525 12.721-10.27 23.12-22.618 19.662-2.056-.576-4.01-1.522-6.652-2.546-.034 4.933 2.466 8.528 4.785 12.177.953 1.498 2.75 2.855 1.514 4.847-1.04 1.675-3.009 1.042-4.603 1.078-3.494.08-6.994.12-10.485-.016-1.872-.073-4.312.882-5.365-1.457-.907-2.011.986-3.316 2.06-4.732 2.659-3.506 4.06-7.488 4.976-12.425-5.237 3.045-10.241 4.562-15.682 3.3-10.458-2.425-16.287-12.848-13.352-23.646 1.887-6.94 6.364-11.932 11.902-16.166 7.109-5.435 14.943-10.03 20.167-18.022 3.22 3.186 5.507 6.714 9.138 9.38zM97.086 119.34c-1.147 0-1.823.073-2.478-.014-1.87-.247-4.324.84-5.339-1.544-.86-2.022 1.068-3.293 2.117-4.731 2.578-3.535 4.16-7.444 4.859-12.401-5.194 3.096-10.22 4.578-15.68 3.29C70.25 101.506 64.48 91.365 67.177 80.7c1.727-6.824 6.078-11.731 11.37-15.988 7.216-5.806 15.565-10.3 21.022-18.889 5.945 9.08 15.101 13.658 22.67 20.094 6.53 5.553 10.993 12.238 10.526 21.089-.709 13.449-13.515 21.001-25.944 15.574-.901-.394-1.774-.854-3.273-1.58-.221 4.961 2.228 8.424 4.373 11.973.92 1.523 2.852 2.814 1.985 4.815-1.033 2.384-3.47 1.384-5.342 1.505-2.323.151-4.664.042-7.478.046zM324.405 420.035c-4.109 5.433-10.404 7.746-14.689 13.536-3.516-4.465-8.022-6.953-11.829-10.319-4.93-4.359-6.39-9.533-4.16-14.178 2.118-4.41 5.89-5.878 12.823-4.937.905-2.799-2.542-4.157-2.203-7.19 3.437-1.648 6.952-1.328 10.453.006.602 2.805-2.629 4.184-1.798 6.722 12.102.178 16.37 6.072 11.403 16.36zM294.228 473.365c-.935-6.716.198-12.715 3.163-18.254 4.349-8.126 14.572-11.46 22.798-7.675 1.699.782 3.561 1.61 2.755 3.988-.736 2.171-2.46 1.667-4.164 1.232-7.999-2.045-13.58 2.418-13.873 9.279 1.884.697 3.478-.532 5.192-.86 6.33-1.21 12.746 2.012 14.772 7.471 2.64 7.115-.21 15.417-6.504 18.565-9.497 4.751-22.52 1.27-24.14-13.746m10.185 3.617c2.22 6.008 5.15 8.02 8.681 5.961 3.227-1.88 4.55-7.59 2.798-11.66-1.853-4.306-5.398-4.664-9.161-3.676-5.349 1.405-2.78 5.386-2.318 9.375zM26.184 75.177c1.104-1.258 1.954-2.27 3.173-3.725 4.066 4.6 9.032 7.339 13.08 11.194 3.899 3.713 5.169 9.104 3.19 13.215-2.621 5.445-7.432 5.982-12.65 5.003-1.077 2.892 2.12 4.221 1.831 7.095-3.416 1.555-6.878 1.57-10.425-.113.094-2.926 2.722-4.543 2.62-7.607-3.358 1.31-6.707 1.62-9.865-.418-5.436-3.508-5.998-11.154-.816-16.49 2.872-2.957 6.384-5.293 9.862-8.154zM40.373 52.243c-5.867 6.433-12.705 8.201-20.577 5.616-1.767-.58-4.215-1.189-3.652-3.918.627-3.04 2.703-1.844 4.69-1.445 7.626 1.53 12.325-1.722 13.502-9.177-1.477-.948-2.884.006-4.25.296-7.165 1.518-12.773-.928-15.39-6.84-2.572-5.808-.576-13.977 4.314-17.655 9.11-6.853 22.194-2.537 25.217 8.462 2.36 8.59 1.298 16.795-3.854 24.661m-16.892-18.3c1.927 4.28 5.526 4.378 9.27 3.418 3.499-.896 3.068-3.931 2.826-6.557-.548-5.955-3.8-9.885-7.589-9.403-4.16.53-6.227 5.722-4.507 12.541z"/></svg>
